src/pos-icons/room-service.svg

<svg height="24" viewBox="0 0 24 24" width="24" xmlns="http://www.w3.org/2000/svg"><path d="m12 5a2 2 0 0 1 2 2c0 .24-.04.47-.12.69 4.07.81 7.12 4.22 7.12 8.31h-18c0-4.09 3.05-7.5 7.12-8.31-.08-.22-.12-.45-.12-.69a2 2 0 0 1 2-2m10 14h-20v-2h20z"/></svg>

<?xml version="1.0" encoding="UTF-8"?><!DOCTYPE svg PUBLIC "-//W3C//DTD SVG 1.1//EN" "http://www.w3.org/Graphics/SVG/1.1/DTD/svg11.dtd"><svg xmlns="http://www.w3.org/2000/svg" xmlns:xlink="http://www.w3.org/1999/xlink" version="1.1" id="mdi-room-service" width="24" height="24" viewBox="0 0 24 24"><path d="M12,5A2,2 0 0,1 14,7C14,7.24 13.96,7.47 13.88,7.69C17.95,8.5 21,11.91 21,16H3C3,11.91 6.05,8.5 10.12,7.69C10.04,7.47 10,7.24 10,7A2,2 0 0,1 12,5M22,19H2V17H22V19Z" /></svg>
